X:18
T:An Suisin B\'an
T:White Blanket, The
R:set dance
H:See also "Casadh An tS\'ug\'ain", air#17
Z:id:hn-setdance-18
M:C|
L:1/8
K:G
(3GAB | cEED EFGE | DE (3GAB c3A | BAGE D2EG |
A2AB ADGA | BAGE DEDE | G2GA G2 :|
|: Bd | e2ed efge | dB (3GAB c3A | BAGE D2EG |
A2AB ADGA | BAGE DEDE | G2GA G2 :|
<end>
<start>
